X: 4123
T: LOWLAND RANT
R: Strathspey.
%R: strathspey, rant
B: James Kerr "Merry Melodies" v.4 p.15 #123
Z: 2016 John Chambers <jc:trillian.mit.edu>
M: C
L: 1/8
K: G
D |\
G>AG>D E>FG>g | d<B A>G E3 F |\
G>AG>D E>FG>g | d<B A>B G3 D |\
G>AG>D E>FG>g | d<B A>G E3 F |\
G>AG>D E>FG>g | d<B A>B G3 |]
c' |\
b>ga>f g>e d<B | A>c B<G E3 c' |\
b>gf>a g>e d<B | A>G A<B G3 b |\
g<b g>d e<g d>B | A>c B<D E3 F |\
G>AG>D E>FG>g | d<B A>B G3 |]

%%sep 1 1 500
%%sep 1 1 500

